X:9
%%etbk:tnset id:4,pos:1,rep:3x,ant:
%%etbk:wsite http://www.thesession.org/tunes/display/528
%%etbk:video src:ytube,cde:dtpzDOZKMHk,desc:
%%etbk:video src:ytube,cde:xc39PEh3C-s,desc:
%%etbk:color #ffffcc
%%etbk:pldat 2016-09-16T17:33,2016-09-13T17:37,2016-08-17T17:27,2016-07-29T16:20,2016-07-23T17:16,2016-07-22T16:41,2016-07-15T14:28,2016-07-12T15:55,2016-07-09T14:25,2016-07-07T15:07,2016-07-05T17:05,2016-06-21T17:15,2016-06-18T16:39,2016-06-14T16:54,2016-06-13T18:02,2016-06-12T15:40,2016-06-01T18:08,2016-05-31T18:39,2016-05-30T19:16,2016-05-29T14:29,2016-05-26T18:50,2016-05-25T15:16,2016-05-24T15:12,2016-05-23T19:28,2016-05-15T17:25,2016-04-17T15:56,2016-04-12T16:15,2016-03-22T17:07,2016-03-17T17:54,2016-03-16T17:17,2016-03-15T17:20,2016-03-14T18:22,2015-08-14T16:03,2015-03-27T17:51,2015-01-25T17:26,2015-01-17T15:23,2014-12-11T18:12,2014-11-24T16:04,2014-10-12T15:01,2014-09-24T16:36,2014-09-13T13:41,2014-09-08T18:53,2014-06-11T16:59,2014-04-27T17:07,2014-04-08T17:27,2014-04-07T19:06,2014-03-26T16:38,2014-03-14T17:59,2014-02-08T15:11,2014-02-05T15:07,2013-12-11T18:13,2013-11-21T18:00,2013-11-13T17:36,2013-11-04T18:46,2013-10-24T18:59,2013-10-08T15:09,2013-09-01T15:32,2013-05-15T17:28
T: Windy Gap, The
T: Tuttle's
S: http://www.youtube.com/watch?v=dtpzDOZKMHk
Z: Piano Box Version by Martin Fleischmann
H: Created 2013-02-19 /  Last Modified 2014-09-13
M: 4/4
L: 1/8
R: Reel
K: Ddor
!1!A,!3!D!1!DE !3!FEF!4!G|!2!A!4!cGc A!5!d d2|!1!D3E FEF!4!G|!2!A!4!c!1!G!2!E !3!F!1!D!4!E!2!C|
A,DDE FEFG|AAGc !2!A!5!d !3!d!4!e|!5!^fded !3!dc!1!A!3!B|1 !4!c!2!A!1!G!2!E !2!E!1!DD2:|2 cAGE EDD2||
|:!5!d2d!3!B !4!c2c!1!G|!2!A!5!ddB !4!c!2!AGA|d2dB !4!cdc!2!A|!1!G!2!E!5!c!2!E !2!E!1!DD2|
d2dB !4!c!3!c!4!cG|Addc !5!d2!3!de|^fded dcAB|1 cAGE EDD2:|2 cAGE FDEC||
|"Var Takt 3/4"!1!D3E !1!F2!5!d!3!B|!4!c2!2!A!1!G !3!F!1!D!4!E!2!C|


